X:1
T:Painter's Polka
R:Polka
O:Canada
M:2/4
%%printtempo 0
Q:120
K:D
"D"A2AB AGFE|E2D2 DFA2|"A"Acec Acec|"D"Adfd Adfd|
"D".A2AB AGFE|"D"E2D2 DFA2|"A"Acec Acec|"D"d2f2 d4:|
|:"G"B2g2 gfg2|"D"A2f2 fed2|"A"c2ec Acec|"D"d2f2 fed2|
"G"B2g2 gfg2|"D"A2f2 fed2|"A"Acec Acec|"D"d2f2d4:|
